X: 41291
T: Tumbledown
R: jig
M: 6/8
K: Eminor
D|EFE EFG|FED GFG|ABc BAG|AGF GFD|
EFE EFG|FED dAG|FGE DEF|EFE E2:|
|:D|EFE dEc|EBE ~A2F|GAB AGF|GFE FED|
EFE dEc|EBE ~A2F|GFE DEF|EFE E2:|

